icon-themes/sifr_svg/cmd/lc_dsbinsertcontent.svg

<svg viewBox="0 0 24 24" xmlns="http://www.w3.org/2000/svg"><path d="m3 2v3h2v-1h8v5h5v12h-13v-1h-2v3h17v-15l-6-6zm0 4v4h7v-4zm0 5v6c0 .554.446 1 1 1h2.5625l-.2617188.300781c-.2.16943-.3007812.433909-.3007812.699219v1h1c.26529 0 .5297888-.100781.6992188-.300781l2-2 .3007812-.261719v-.875l-.3007812-.261719-2-2c-.16942-.2-.4339088-.300781-.6992188-.300781h-1v1c0 .2653.1007813.529799.3007812.699219l.2617188.300781h-1.5625v-5zm8 3v6h6v-6zm2 2h2v2h-2z" fill="#555753"/></svg>

<svg xmlns="http://www.w3.org/2000/svg" viewBox="0 0 24 24">
  <path
     style="fill:#555753"
     d="M 3 2 L 3 5 L 5 5 L 5 4 L 13 4 L 13 9 L 18 9 L 18 21 L 5 21 L 5 20 L 3 20 L 3 23 L 20 23 L 20 8 L 14 2 L 3 2 z M 3 6 L 3 10 L 10 10 L 10 6 L 3 6 z M 3 11 L 3 17 C 3 17.554 3.446 18 4 18 L 6.5625 18 L 6.3007812 18.300781 C 6.1007812 18.470211 6 18.73469 6 19 L 6 20 L 7 20 C 7.26529 20 7.5297888 19.899219 7.6992188 19.699219 L 9.6992188 17.699219 L 10 17.4375 L 10 16.5625 L 9.6992188 16.300781 L 7.6992188 14.300781 C 7.5297988 14.100781 7.26531 14 7 14 L 6 14 L 6 15 C 6 15.2653 6.1007813 15.529799 6.3007812 15.699219 L 6.5625 16 L 5 16 L 5 11 L 3 11 z M 11 14 L 11 20 L 17 20 L 17 14 L 11 14 z M 13 16 L 15 16 L 15 18 L 13 18 L 13 16 z "
     />
</svg>
